X:49
T:Banish Misfortune
M:6/8
L:1/8
R:Jig
K:G
|:e|"D"fed "C"cAG|A2d "C"cAG|"D"F3DED|F3 "C"GFG|"Am"A3 cAG|"C"AGA "Am"cde|"D"fed "C"cAG|"Am"Ad^c"D"d2:|!
|:e|"D"f2d d^cd|f2g agf|"C"~e3 cBc|e2f "Am"gfe|"D"f2g agf|"C"e2f gfe|"D"fed "C"cAG|"Am"Ad^c"D"d2:|!
|:e|"Dm"=f2ge2f|d2e c2d|"Am"~A3GAG|"D"F2A GED|"C"c3 cAG|AGA "Am"cde|"D"fed "C"cAG|"Am"Ad^c"D"d2:|

